public/static/icons/skills/npm.svg

<svg xmlns="http://www.w3.org/2000/svg"  viewBox="0 0 48 48" width="48px" height="48px"><path fill="#d50000" d="M0,15h48v17H24v3H13v-3H0V15z"/><path fill="#fff" d="M3 29L8 29 8 21 11 21 11 29 13 29 13 18 3 18zM16 18v14h5v-3h5V18H16zM24 26h-3v-5h3V26zM29 18L29 29 34 29 34 21 37 21 37 29 40 29 40 21 43 21 43 29 45 29 45 18z"/></svg>

<?xml version="1.0" encoding="UTF-8"?>
<svg xmlns="http://www.w3.org/2000/svg" xmlns:xlink="http://www.w3.org/1999/xlink" width="48pt" height="48pt" viewBox="0 0 48 48" version="1.1">
<g id="surface1">
<path style=" stroke:none;fill-rule:nonzero;fill:rgb(83.529412%,0%,0%);fill-opacity:1;" d="M 0 15 L 48 15 L 48 32 L 24 32 L 24 35 L 13 35 L 13 32 L 0 32 Z M 0 15 "/>
<path style=" stroke:none;fill-rule:nonzero;fill:rgb(100%,100%,100%);fill-opacity:1;" d="M 3 29 L 8 29 L 8 21 L 11 21 L 11 29 L 13 29 L 13 18 L 3 18 Z M 16 18 L 16 32 L 21 32 L 21 29 L 26 29 L 26 18 Z M 24 26 L 21 26 L 21 21 L 24 21 Z M 29 18 L 29 29 L 34 29 L 34 21 L 37 21 L 37 29 L 40 29 L 40 21 L 43 21 L 43 29 L 45 29 L 45 18 Z M 29 18 "/>
</g>
</svg>
